Sources/FrostedUI/Resources/Icons.xcassets/rewardDiamond20.imageset/reward-diamond-20.svg

<svg width="20" height="20" viewBox="0 0 20 20" fill="none" xmlns="http://www.w3.org/2000/svg" data-fui-icon="true">
  <path
    d="M12.9878 2.09465C13.8232 2.09465 14.6134 2.47455 15.1353 3.12688L18.3979 7.205C19.2472 8.26653 19.1931 9.7891 18.271 10.788L12.02 17.5605C10.9311 18.7397 9.06783 18.7398 7.979 17.5605L1.72803 10.788C0.805972 9.78912 0.751885 8.26653 1.60107 7.205L4.86377 3.12688C5.38564 2.47454 6.17582 2.09465 7.01123 2.09465H12.9878ZM7.01123 3.59465C6.63152 3.59465 6.27188 3.76691 6.03467 4.0634L2.77197 8.1425C2.38651 8.62485 2.41097 9.31654 2.82959 9.77043L9.08154 16.5429C9.57653 17.0788 10.4236 17.079 10.9185 16.5429L17.1694 9.77043C17.5882 9.31651 17.6126 8.6249 17.2271 8.1425L13.9644 4.0634C13.7271 3.76697 13.3675 3.59465 12.9878 3.59465H7.01123ZM9.51807 5.77824C9.65543 5.29329 10.3436 5.29331 10.481 5.77824L11.0132 7.65813C11.0605 7.82506 11.1909 7.95559 11.3579 8.00285L13.2368 8.53508C13.7219 8.67239 13.7219 9.35968 13.2368 9.49699L11.3579 10.0292C11.1909 10.0765 11.0605 10.207 11.0132 10.3739L10.481 12.2538C10.3436 12.7387 9.65543 12.7388 9.51807 12.2538L8.98682 10.3739C8.93952 10.2069 8.80816 10.0765 8.64111 10.0292L6.76221 9.49699C6.27712 9.35968 6.27712 8.67239 6.76221 8.53508L8.64111 8.00285C8.80816 7.95557 8.93952 7.82517 8.98682 7.65813L9.51807 5.77824Z"
    fill="currentColor"
  />
</svg>

<svg xmlns="http://www.w3.org/2000/svg" width="20" height="20" fill="none" data-fui-icon="true" viewBox="0 0 20 20"><path fill="currentColor" d="M12.988 2.095c.835 0 1.625.38 2.147 1.032l3.263 4.078a2.75 2.75 0 0 1-.127 3.583l-6.251 6.773a2.75 2.75 0 0 1-4.041 0l-6.251-6.773a2.75 2.75 0 0 1-.127-3.583l3.263-4.078A2.75 2.75 0 0 1 7.01 2.095zm-5.977 1.5c-.38 0-.74.172-.976.468l-3.263 4.08A1.25 1.25 0 0 0 2.83 9.77l6.252 6.773a1.25 1.25 0 0 0 1.836 0L17.17 9.77a1.25 1.25 0 0 0 .058-1.627l-3.263-4.08a1.25 1.25 0 0 0-.976-.468zm2.507 2.183c.137-.485.826-.485.963 0l.532 1.88a.5.5 0 0 0 .345.345l1.879.532c.485.137.485.825 0 .962l-1.88.532a.5.5 0 0 0-.344.345l-.532 1.88c-.137.485-.826.485-.963 0l-.531-1.88a.5.5 0 0 0-.346-.345l-1.879-.532c-.485-.137-.485-.825 0-.962l1.88-.532a.5.5 0 0 0 .345-.345z"/></svg>
